img/services/loop-icon.svg

<svg width="76" height="77" viewBox="0 0 76 77" fill="none" xmlns="http://www.w3.org/2000/svg">
<path opacity="0.06" d="M55.0286 0.859375H21.2527C9.70499 0.859375 0.34375 10.2206 0.34375 21.7683V55.5442C0.34375 67.0919 9.70499 76.4531 21.2527 76.4531H55.0286C66.5763 76.4531 75.9375 67.0919 75.9375 55.5442V21.7683C75.9375 10.2206 66.5763 0.859375 55.0286 0.859375Z" fill="#5CC97B"/>
<path d="M38.1407 64.3967C52.3568 64.3967 63.8811 52.8723 63.8811 38.6563C63.8811 24.4402 52.3568 12.9159 38.1407 12.9159C23.9247 12.9159 12.4003 24.4402 12.4003 38.6563C12.4003 52.8723 23.9247 64.3967 38.1407 64.3967Z" fill="#5CC97B"/>
<path fill-rule="evenodd" clip-rule="evenodd" d="M40.8976 45.0292C39.0546 46.2479 36.8249 46.9189 34.4491 46.8208C28.4399 46.5726 23.7695 41.4995 24.0177 35.4901C24.2659 29.4807 29.3387 24.8111 35.3478 25.0593C41.356 25.3073 46.0275 30.3794 45.7793 36.3889C45.6918 38.5072 45.0047 40.4592 43.8884 42.088L51.225 49.2115C52.1302 50.1929 52.0978 51.7099 51.1677 52.6499L51.125 52.6893L51.0798 52.7284C50.0688 53.5779 48.5542 53.4868 47.6499 52.5046L40.8976 45.0292ZM34.5528 44.309C29.9306 44.1181 26.3378 40.2157 26.5287 35.5935C26.7196 30.9713 30.6219 27.3785 35.2442 27.5694C39.8664 27.7603 43.4593 31.6626 43.2684 36.2848C43.0774 40.9071 39.175 44.4999 34.5528 44.309Z" fill="white"/>
</svg>

<svg xmlns="http://www.w3.org/2000/svg" width="76" height="77" fill="none"><path fill="#5CC97B" d="M55.029.86H21.253C9.705.86.343 10.22.343 21.767v33.776c0 11.548 9.362 20.91 20.91 20.91h33.776c11.547 0 20.908-9.362 20.908-20.91V21.768C75.938 10.221 66.578.86 55.03.86Z" opacity=".06"/><path fill="#5CC97B" d="M38.14 64.397c14.217 0 25.741-11.525 25.741-25.74 0-14.217-11.524-25.741-25.74-25.741S12.4 24.44 12.4 38.656s11.524 25.74 25.74 25.74Z"/><path fill="#fff" fill-rule="evenodd" d="M40.898 45.03a10.84 10.84 0 0 1-6.449 1.79c-6.01-.247-10.68-5.32-10.431-11.33.248-6.01 5.32-10.679 11.33-10.43 6.008.247 10.68 5.32 10.431 11.329a10.839 10.839 0 0 1-1.89 5.699l7.336 7.123a2.492 2.492 0 0 1-.057 3.439l-.043.04-.045.038a2.49 2.49 0 0 1-3.43-.223l-6.752-7.476Zm-6.345-.721a8.377 8.377 0 1 1 .692-16.74 8.377 8.377 0 0 1-.692 16.74Z" clip-rule="evenodd"/></svg>
